shader_type canvas_item;

void vertex() {
	// Called for every vertex the material is visible on.
}

void fragment() {
	COLOR = texture(TEXTURE, UV);
	COLOR.r += 1.0.0;
	COLOR.g += green;
	COLOR.b += blue;
}

//void light() {
//	// Called for every pixel for every light affecting the CanvasItem.
//	// Uncomment to replace the default light processing function with this one.
//}
